icon-themes/breeze_svg/cmd/lc_graphicfiltersobel.svg

<svg xmlns="http://www.w3.org/2000/svg" viewBox="0 0 24 24">
 <defs>
  <linearGradient y2="15.573532" x2="11.853017" y1="12.06653" x1="8.369491" gradientUnits="userSpaceOnUse" id="0">
   <stop stop-color="#4d4d4d"/>
   <stop offset="1" stop-color="#b3b3b3"/>
  </linearGradient>
 </defs>
 <path d="m16.40625 4l-4 4-1.09375 1.09375-3.3125 3.28125v.03125l-.6875.6875-3.3125 3.28125v1.625l2 2h1.625l3.96875-4 1.125-1.125 3.28125-3.28125.71875-.71875 3.28125-3.28125v-1.59375l-2-2h-1.59375" fill="url(#0)"/>
</svg>

<?xml version="1.0" encoding="UTF-8" standalone="no"?>
<!-- Created with Inkscape (http://www.inkscape.org/) -->

<svg
   xmlns:dc="http://purl.org/dc/elements/1.1/"
   xmlns:cc="http://creativecommons.org/ns#"
   xmlns:rdf="http://www.w3.org/1999/02/22-rdf-syntax-ns#"
   xmlns:svg="http://www.w3.org/2000/svg"
   xmlns="http://www.w3.org/2000/svg"
   xmlns:xlink="http://www.w3.org/1999/xlink"
   xmlns:sodipodi="http://sodipodi.sourceforge.net/DTD/sodipodi-0.dtd"
   xmlns:inkscape="http://www.inkscape.org/namespaces/inkscape"
   width="24"
   height="24"
   id="svg2"
   version="1.1"
   inkscape:version="0.48.4 r9939"
   viewBox="0 0 24 24"
   sodipodi:docname="lc_graphicfiltersobel.svg">
  <defs
     id="defs4">
    <linearGradient
       inkscape:collect="always"
       xlink:href="#linearGradient4450"
       id="linearGradient4459"
       gradientUnits="userSpaceOnUse"
       gradientTransform="matrix(0.70710678,-0.70710678,0.70710678,0.70710678,-677.53317,-69.84624)"
       x1="429.91379"
       y1="537.27063"
       x2="429.89719"
       y2="542.21368" />
    <linearGradient
       id="linearGradient4450">
      <stop
         style="stop-color:#4d4d4d;stop-opacity:1;"
         offset="0"
         id="stop4452" />
      <stop
         style="stop-color:#b3b3b3;stop-opacity:1;"
         offset="1"
         id="stop4454" />
    </linearGradient>
    <linearGradient
       y2="542.21368"
       x2="429.89719"
       y1="537.27063"
       x1="429.91379"
       gradientTransform="matrix(0.70710678,-0.70710678,0.70710678,0.70710678,-675.53317,-63.84622)"
       gradientUnits="userSpaceOnUse"
       id="linearGradient4519"
       xlink:href="#linearGradient4450"
       inkscape:collect="always" />
    <linearGradient
       y2="542.21368"
       x2="429.89719"
       y1="537.27063"
       x1="429.91379"
       gradientTransform="matrix(0.70710678,-0.70710678,0.70710678,0.70710678,-676.53317,965.51598)"
       gradientUnits="userSpaceOnUse"
       id="linearGradient4519-1"
       xlink:href="#linearGradient4450-0"
       inkscape:collect="always" />
    <linearGradient
       id="linearGradient4450-0">
      <stop
         style="stop-color:#4d4d4d;stop-opacity:1;"
         offset="0"
         id="stop4452-1" />
      <stop
         style="stop-color:#b3b3b3;stop-opacity:1;"
         offset="1"
         id="stop4454-4" />
    </linearGradient>
    <linearGradient
       y2="542.21368"
       x2="429.89719"
       y1="537.27063"
       x1="429.91379"
       gradientTransform="matrix(0.70710678,-0.70710678,0.70710678,0.70710678,-672.53317,961.516)"
       gradientUnits="userSpaceOnUse"
       id="linearGradient3039"
       xlink:href="#linearGradient4450-0"
       inkscape:collect="always" />
  </defs>
  <sodipodi:namedview
     id="base"
     pagecolor="#ffffff"
     bordercolor="#666666"
     borderopacity="1.0"
     inkscape:pageopacity="0.0"
     inkscape:pageshadow="2"
     inkscape:zoom="25.15656"
     inkscape:cx="25.138188"
     inkscape:cy="11.207269"
     inkscape:document-units="px"
     inkscape:current-layer="layer1"
     showgrid="true"
     inkscape:showpageshadow="false"
     units="px"
     inkscape:window-width="1868"
     inkscape:window-height="1060"
     inkscape:window-x="50"
     inkscape:window-y="-3"
     inkscape:window-maximized="1"
     showguides="true"
     fit-margin-top="0"
     fit-margin-left="0"
     fit-margin-right="0"
     fit-margin-bottom="0"
     inkscape:snap-bbox="true">
    <inkscape:grid
       type="xygrid"
       id="grid4120"
       originx="1px"
       originy="0.99998262px" />
    <sodipodi:guide
       position="3,21"
       orientation="18,0"
       id="guide4126" />
    <sodipodi:guide
       position="3,3"
       orientation="0,18"
       id="guide4128" />
    <sodipodi:guide
       position="21,21"
       orientation="0,-18"
       id="guide4132" />
    <sodipodi:guide
       position="4,20"
       orientation="16,0"
       id="guide4134" />
    <sodipodi:guide
       position="4,4"
       orientation="0,16"
       id="guide4136" />
    <sodipodi:guide
       position="20,4"
       orientation="-16,0"
       id="guide4138" />
    <sodipodi:guide
       position="20,20"
       orientation="0,-16"
       id="guide4140" />
    <sodipodi:guide
       position="20,14"
       orientation="-6,0"
       id="guide4199" />
    <sodipodi:guide
       position="20,20"
       orientation="0,-6.0000172"
       id="guide4201" />
  </sodipodi:namedview>
  <metadata
     id="metadata7">
    <rdf:RDF>
      <cc:Work
         rdf:about="">
        <dc:format>image/svg+xml</dc:format>
        <dc:type
           rdf:resource="http://purl.org/dc/dcmitype/StillImage" />
        <dc:title />
      </cc:Work>
    </rdf:RDF>
  </metadata>
  <g
     inkscape:label="Capa 1"
     inkscape:groupmode="layer"
     id="layer1"
     transform="translate(1,-1029.3622)">
    <rect
       style="fill:#4d4d4d;fill-opacity:1;stroke:none"
       id="rect4035"
       width="0"
       height="10.999983"
       x="-37.468155"
       y="1034.9827" />
    <rect
       style="fill:#4d4d4d;fill-opacity:1;stroke:none"
       id="rect4035-5"
       width="0"
       height="10.999983"
       x="-19.427383"
       y="1032.9314" />
    <rect
       style="fill:#4d4d4d;fill-opacity:1;stroke:none"
       id="rect4035-8"
       width="0"
       height="10.999983"
       x="-37.468155"
       y="1034.9827" />
    <rect
       style="fill:#4d4d4d;fill-opacity:1;stroke:none"
       id="rect4035-59"
       width="0"
       height="10.999983"
       x="-37.468155"
       y="1034.9827" />
    <rect
       style="fill:#4d4d4d;fill-opacity:1;stroke:none"
       id="rect4035-6"
       width="0"
       height="10.999983"
       x="-44.776306"
       y="1030.1481" />
    <rect
       style="fill:#4d4d4d;fill-opacity:1;stroke:none"
       id="rect4035-5-1"
       width="0"
       height="10.999983"
       x="-26.735535"
       y="1028.0967" />
    <rect
       style="fill:#4d4d4d;fill-opacity:1;stroke:none"
       id="rect4035-8-3"
       width="0"
       height="10.999983"
       x="-44.776306"
       y="1030.1481" />
    <rect
       style="fill:#4d4d4d;fill-opacity:1;stroke:none"
       id="rect4035-59-4"
       width="0"
       height="10.999983"
       x="-44.776306"
       y="1030.1481" />
    <rect
       style="fill:#4d4d4d;fill-opacity:1;stroke:none"
       id="rect4035-1"
       width="0"
       height="10.999983"
       x="-38.761135"
       y="1034.3643" />
    <rect
       style="fill:#4d4d4d;fill-opacity:1;stroke:none"
       id="rect4035-5-0"
       width="0"
       height="10.999983"
       x="-20.720364"
       y="1032.313" />
    <rect
       style="fill:#4d4d4d;fill-opacity:1;stroke:none"
       id="rect4035-8-1"
       width="0"
       height="10.999983"
       x="-38.761135"
       y="1034.3643" />
    <rect
       style="fill:#4d4d4d;fill-opacity:1;stroke:none"
       id="rect4035-59-1"
       width="0"
       height="10.999983"
       x="-38.761135"
       y="1034.3643" />
    <g
       transform="translate(-40.1841,1.16606)"
       id="layer1-1"
       inkscape:label="Capa 1" />
    <path
       style="fill:url(#linearGradient4519);fill-opacity:1;stroke:none"
       d="M 16.40625 4 L 12.40625 8 L 11.3125 9.09375 L 8 12.375 L 8 12.40625 L 7.3125 13.09375 L 4 16.375 L 4 18 L 6 20 L 7.625 20 L 11.59375 16 L 12.71875 14.875 L 16 11.59375 L 16.71875 10.875 L 20 7.59375 L 20 6 L 18 4 L 16.40625 4 z "
       transform="translate(-1,1029.3622)"
       id="rect4132" />
  </g>
</svg>
